X:1
T:Ragtime Annie
R:rag
M:C|
K:D
DE| "D"F2 BF AFBF| AFBF A2DE| "D"F2 BF AFBF| "A"A c2 Bc2 cB|
    "A"ABcA B2cB| ABcA B2cB|"A" ABcd egfe| "D"d2dc d2:|
(3efg| "D"a2a2 fed2| A6 (3efg| a2a2 fe d2| "G"B6 ef|
    "A"gfef gfef|"A7" gfed c4|"A" cdcB ABAG| "D"F6 (3efg|
    "D"a2a2 fed2| f6e2| d3d "D7"c2 =c2| "G"B6 ef|
    "G"gb2 gb2g2| "D"fa2 fa2f2| "A7"ABcd egfe| "D"d2dc d2 |]
